X: 23285
T: Leaving Uist
R: waltz
M: 3/4
K: Eminor
z2 ze ed||"Em"B3A AG|"D/F#"AGE3G|"Am"A3BB2|"C"e3e de|"Hm"g3a ag|"Em"edB3A|"Am"G3 B "Hm"AG|"Em"E4ed|
"Em"B3A AG|"D/F#"AGE3G|"Am"A3BB2|"C"e3e de|"Hm"g3a ag|"Em"edB3A|"G"G3B de|"Am"A4a2|
"C"a4b2|"Am"age2eB|"G"d3eg2|g4ag|"C"de ga ed|"G"AB de AG|"Am"EG2B "Hm"AG|"Em"E4ed|
"Em"B3A AG|"D/F#"AGE3G|"Am"A3BB2|"C"e3e de|"Hm"g3a ag|"Em"edB3A|"G"G3B de|"Am"A3 e ed||

